src/svg/close.svg

<svg focusable="false" viewBox="0 0 12 12"><path fill-rule="evenodd" d="M11.53.47a.75.75 0 0 0-1.061 0l-4.47 4.47L1.529.47A.75.75 0 1 0 .468 1.531l4.47 4.47-4.47 4.47a.75.75 0 1 0 1.061 1.061l4.47-4.47 4.47 4.47a.75.75 0 1 0 1.061-1.061l-4.47-4.47 4.47-4.47a.75.75 0 0 0 0-1.061z"/></svg>

<svg viewBox="0 0 12 12">
  <path fill-rule="evenodd" d="M11.53,0.47 C11.237,0.177 10.762,0.177 10.469,0.47 L5.999,4.94 L1.529,0.47 C1.236,0.177 0.761,0.177 0.468,0.47 C0.175,0.763 0.175,1.238 0.468,1.531 L4.938,6.001 L0.468,10.471 C0.175,10.764 0.175,11.239 0.468,11.532 C0.761,11.825 1.236,11.825 1.529,11.532 L5.999,7.062 L10.469,11.532 C10.762,11.825 11.237,11.825 11.53,11.532 C11.823,11.239 11.823,10.764 11.53,10.471 L7.06,6.001 L11.53,1.531 C11.823,1.238 11.823,0.763 11.53,0.47 L11.53,0.47 Z"/>
</svg>
